X: 7788
T:Schottische Nerondaise
M:2/4
O:France
R:Schottische
K:G
D2GA B4| c2BA d4| dBGB B2A2| cAFA A2G2|\
D2GAB4| c2BA d4| dBGB B2A2| cAFA  G4::
dcBc d2e2| A2e2 d4| edcB c2A2| dcBA B2G2|\
dcBc d2e2 | A2e2d4 | edcB c2A2| dcBA G4:|
